src/assets/img/logo-hacktoberfest-11--footer.svg

<svg xmlns="http://www.w3.org/2000/svg" width="1028" height="410" fill="none"><path fill="#F3F0E0" d="M452.946 137.844h14.272v30.955h24.444v-30.955h14.272v75.771h-14.272v-31.18h-24.444v31.18h-14.272zM557.434 197.378h-25.75l-3.681 16.237H513.07l18.058-75.771h26.832l18.058 75.771h-14.933l-3.681-16.237zm-22.715-13.635h19.575l-8.758-38.758h-1.954zM609.897 202.144c2.734 0 4.988-.421 6.76-1.248 1.773-.826 3.14-1.954 4.117-3.352.976-1.413 1.637-3.037 1.998-4.871q.54-2.751.541-5.683v-1.954h14.272v1.954c0 9.02-2.359 15.966-7.091 20.837-4.717 4.871-11.598 7.307-20.612 7.307s-15.505-2.631-20.553-7.908c-5.048-5.262-7.571-12.96-7.571-23.062V167.28c0-4.825.646-9.185 1.953-13.049 1.292-3.864 3.17-7.111 5.618-9.742s5.409-4.661 8.864-6.059c3.456-1.413 7.362-2.105 11.689-2.105 4.326 0 8.443.647 11.898 1.955 3.456 1.293 6.37 3.172 8.714 5.623s4.116 5.412 5.303 8.87 1.788 7.366 1.788 11.696v1.955h-14.272v-1.955c0-1.804-.211-3.608-.646-5.412q-.654-2.706-2.164-4.871c-1.006-1.443-2.373-2.616-4.116-3.518q-2.592-1.353-6.49-1.353c-2.374 0-4.432.451-6.16 1.353a12.65 12.65 0 0 0-4.327 3.683c-1.157 1.549-1.998 3.353-2.539 5.412a25.3 25.3 0 0 0-.811 6.435v19.048c0 2.451.255 4.706.751 6.765.496 2.06 1.292 3.849 2.374 5.353s2.509 2.691 4.267 3.517c1.772.827 3.906 1.248 6.43 1.248zM664.312 213.615h-14.273v-75.771h14.273v31.06h3.14l20.011-31.06h16.12v.646l-23.361 36.262v1.955l24.668 36.262v.646h-16.766l-20.657-31.06h-3.14v31.06zM712.658 137.844h54.52v13.636h-20.116v62.135h-14.273V151.48h-20.116v-13.636zM777.124 167.28c0-9.817 2.464-17.424 7.407-22.836s11.778-8.119 20.492-8.119c8.713 0 15.564 2.707 20.492 8.119 4.943 5.412 7.407 13.034 7.407 22.836v16.884c0 10.102-2.479 17.785-7.407 23.062-4.943 5.262-11.779 7.908-20.492 7.908s-15.565-2.631-20.492-7.908c-4.943-5.262-7.407-12.96-7.407-23.062zm27.914 34.864c2.599 0 4.762-.421 6.49-1.248 1.728-.826 3.14-1.999 4.222-3.517 1.081-1.519 1.832-3.323 2.268-5.413.436-2.089.646-4.405.646-6.93v-18.612c0-2.376-.255-4.616-.751-6.706-.511-2.089-1.292-3.893-2.374-5.412-1.081-1.518-2.494-2.721-4.221-3.623-1.728-.902-3.816-1.353-6.28-1.353s-4.537.451-6.28 1.353c-1.728.902-3.14 2.105-4.222 3.623-1.081 1.519-1.878 3.323-2.373 5.412-.511 2.09-.752 4.33-.752 6.706v18.612c0 2.525.211 4.841.646 6.93.436 2.09 1.187 3.894 2.269 5.413 1.082 1.518 2.494 2.691 4.222 3.517 1.727.827 3.891 1.248 6.49 1.248M842.026 199.979h7.136V151.48h-7.136v-13.636h33.202c3.605 0 6.79.511 9.57 1.518 2.779 1.007 5.123 2.376 7.031 4.12a16.7 16.7 0 0 1 4.327 6.224c.976 2.42 1.457 5.036 1.457 7.847v1.293c0 4.33-1.202 7.788-3.621 10.389s-5.468 4.405-9.134 5.412v1.954c3.681 1.008 6.715 2.827 9.134 5.473 2.419 2.631 3.621 6.119 3.621 10.448v1.293c0 2.812-.481 5.428-1.457 7.848a17.3 17.3 0 0 1-4.327 6.284c-1.908 1.774-4.252 3.157-7.031 4.165-2.78 1.007-5.965 1.518-9.57 1.518h-33.202v-13.651m21.423-31.18h10.382c3.034 0 5.483-.632 7.361-1.895s2.809-3.412 2.809-6.434v-.647c0-3.036-.931-5.171-2.809-6.434s-4.327-1.894-7.361-1.894h-10.382v17.319zm0 31.18h10.382c3.034 0 5.483-.646 7.361-1.954 1.878-1.293 2.809-3.458 2.809-6.495v-.646c0-3.037-.931-5.202-2.809-6.495s-4.327-1.954-7.361-1.954h-10.382v17.544M911.044 137.844h47.805v13.636h-33.533v17.319h32.241v13.636h-32.241v17.529h34.825V213.6h-49.112v-75.771zM1026.02 213.615h-14.27v-22.731c0-1.729-.45-3.142-1.36-4.225-.9-1.082-2.4-1.624-4.49-1.624h-16.433v28.58h-14.272v-75.771h28.995c3.89 0 7.32.541 10.28 1.623 2.96 1.083 5.42 2.586 7.4 4.496a19.3 19.3 0 0 1 4.54 6.66c1.05 2.525 1.56 5.231 1.56 8.118v2.601c0 3.097-.82 6.014-2.49 8.72s-4.22 4.78-7.68 6.224v1.954c2.53.286 4.52 1.263 6.01 2.917 1.47 1.653 2.22 3.758 2.22 6.284v26.189zM989.467 171.4h13.623c3.46 0 6.1-.812 7.91-2.436 1.8-1.624 2.7-3.909 2.7-6.87v-1.293c0-2.526-.9-4.706-2.7-6.555-1.81-1.834-4.44-2.766-7.91-2.766h-13.623zM452.946 240.676h48.466v13.636h-34.179v17.319h33.533v13.636h-33.533v31.181h-14.272v-75.772zM517.412 240.676h47.805v13.636h-33.533v17.319h32.241v13.636h-32.241v17.53h34.825v13.636h-49.112v-75.772zM619.737 263.844c0-3.037-1.171-5.668-3.515-7.908s-5.649-3.353-9.901-3.353c-3.605 0-6.46.737-8.548 2.225-2.088 1.474-3.14 3.488-3.14 6.014 0 1.293.255 2.466.751 3.518.511 1.052 1.382 1.984 2.644 2.811s2.915 1.564 4.973 2.225c2.058.647 4.673 1.263 7.843 1.835 7.932 1.443 13.986 3.863 18.178 7.246 4.177 3.398 6.28 8.404 6.28 15.049v1.293c0 3.533-.631 6.735-1.893 9.577a20 20 0 0 1-5.469 7.306c-2.373 2.015-5.258 3.578-8.653 4.661s-7.212 1.623-11.463 1.623c-4.973 0-9.36-.706-13.146-2.105-3.786-1.413-6.941-3.352-9.465-5.848s-4.432-5.412-5.739-8.765c-1.292-3.352-1.953-7.02-1.953-10.989v-3.248h14.273v2.601c0 4.54 1.322 8.179 3.951 10.885s6.73 4.059 12.274 4.059c4.327 0 7.527-.932 9.63-2.811 2.088-1.88 3.14-4.12 3.14-6.706 0-1.232-.21-2.405-.646-3.518s-1.187-2.134-2.268-3.036c-1.082-.902-2.569-1.714-4.432-2.436-1.878-.722-4.252-1.338-7.137-1.834-3.816-.647-7.316-1.503-10.486-2.541-3.17-1.037-5.934-2.435-8.278-4.164a18 18 0 0 1-5.469-6.495c-1.292-2.601-1.953-5.773-1.953-9.531v-.647c0-3.097.631-5.968 1.893-8.599a20.8 20.8 0 0 1 5.304-6.871c2.268-1.954 5.002-3.458 8.217-4.54 3.201-1.083 6.791-1.624 10.757-1.624q6.716 0 11.899 1.894c3.455 1.263 6.37 2.977 8.714 5.142 2.343 2.165 4.116 4.661 5.303 7.472a22.6 22.6 0 0 1 1.788 8.87v3.894h-14.273v-2.601zM644.617 240.676h54.52v13.636h-20.116v62.136h-14.273v-62.136h-20.116v-13.636zM227.607 272.488H92.395v45.102h135.212zM317.598 137.272h-45.071V317.68h45.071zM183.287 92.08h-45.07v180.408h45.07zM138.217 137.182h-45.07v45.102h45.07zM272.527 182.375h-45.07v45.102h45.07z"/><path fill="#F3F0E0" d="M362.669 272.578h-45.071v45.102h45.071zM92.695 409.388l-46.122-45.403V47.73h316.021l46.122 45.403V.478H0v409z"/></svg>

<svg width="1028" height="410" viewBox="0 0 1028 410" fill="none" xmlns="http://www.w3.org/2000/svg">
<path d="M452.946 137.844H467.218V168.799H491.662V137.844H505.934V213.615H491.662V182.435H467.218V213.615H452.946V137.844Z" fill="#F3F0E0"/>
<path d="M557.434 197.378H531.684L528.003 213.615H513.07L531.128 137.844H557.96L576.018 213.615H561.085L557.404 197.378H557.434ZM534.719 183.743H554.294L545.536 144.985H543.582L534.719 183.743Z" fill="#F3F0E0"/>
<path d="M609.897 202.144C612.631 202.144 614.885 201.723 616.657 200.896C618.43 200.07 619.797 198.942 620.774 197.544C621.75 196.131 622.411 194.507 622.772 192.673C623.132 190.839 623.313 188.944 623.313 186.99V185.036H637.585V186.99C637.585 196.01 635.226 202.956 630.494 207.827C625.777 212.698 618.896 215.134 609.882 215.134C600.868 215.134 594.377 212.503 589.329 207.226C584.281 201.964 581.758 194.266 581.758 184.164V167.28C581.758 162.455 582.404 158.095 583.711 154.231C585.003 150.367 586.881 147.12 589.329 144.489C591.778 141.858 594.738 139.828 598.193 138.43C601.649 137.017 605.555 136.325 609.882 136.325C614.208 136.325 618.325 136.972 621.78 138.28C625.236 139.573 628.15 141.452 630.494 143.903C632.838 146.353 634.61 149.315 635.797 152.773C636.984 156.23 637.585 160.139 637.585 164.469V166.424H623.313V164.469C623.313 162.665 623.102 160.861 622.667 159.057C622.231 157.253 621.51 155.629 620.503 154.186C619.497 152.743 618.13 151.57 616.387 150.668C614.659 149.766 612.496 149.315 609.897 149.315C607.523 149.315 605.465 149.766 603.737 150.668C602.009 151.57 600.567 152.803 599.41 154.351C598.253 155.9 597.412 157.704 596.871 159.763C596.33 161.823 596.06 163.973 596.06 166.198V185.246C596.06 187.697 596.315 189.952 596.811 192.011C597.307 194.071 598.103 195.86 599.185 197.364C600.267 198.867 601.694 200.055 603.452 200.881C605.224 201.708 607.358 202.129 609.882 202.129L609.897 202.144Z" fill="#F3F0E0"/>
<path d="M664.312 213.615H650.039V137.844H664.312V168.904H667.452L687.463 137.844H703.583V138.49L680.222 174.752V176.707L704.89 212.969V213.615H688.124L667.467 182.555H664.327V213.615H664.312Z" fill="#F3F0E0"/>
<path d="M712.658 137.844H767.178V151.48H747.062V213.615H732.789V151.48H712.673V137.844H712.658Z" fill="#F3F0E0"/>
<path d="M777.124 167.28C777.124 157.463 779.588 149.856 784.531 144.444C789.473 139.032 796.309 136.325 805.023 136.325C813.736 136.325 820.587 139.032 825.515 144.444C830.458 149.856 832.922 157.478 832.922 167.28V184.164C832.922 194.266 830.443 201.949 825.515 207.226C820.572 212.488 813.736 215.134 805.023 215.134C796.309 215.134 789.458 212.503 784.531 207.226C779.588 201.964 777.124 194.266 777.124 184.164V167.28ZM805.038 202.144C807.637 202.144 809.8 201.723 811.528 200.896C813.256 200.07 814.668 198.897 815.75 197.379C816.831 195.86 817.582 194.056 818.018 191.966C818.454 189.877 818.664 187.561 818.664 185.036V166.424C818.664 164.048 818.409 161.808 817.913 159.718C817.402 157.629 816.621 155.825 815.539 154.306C814.458 152.788 813.045 151.585 811.318 150.683C809.59 149.781 807.502 149.33 805.038 149.33C802.574 149.33 800.501 149.781 798.758 150.683C797.03 151.585 795.618 152.788 794.536 154.306C793.455 155.825 792.658 157.629 792.163 159.718C791.652 161.808 791.411 164.048 791.411 166.424V185.036C791.411 187.561 791.622 189.877 792.057 191.966C792.493 194.056 793.244 195.86 794.326 197.379C795.408 198.897 796.82 200.07 798.548 200.896C800.275 201.723 802.439 202.144 805.038 202.144Z" fill="#F3F0E0"/>
<path d="M842.026 199.979H849.162V151.48H842.026V137.844H875.228C878.833 137.844 882.018 138.355 884.798 139.362C887.577 140.369 889.921 141.738 891.829 143.482C893.737 145.21 895.179 147.285 896.156 149.706C897.132 152.126 897.613 154.742 897.613 157.553V158.846C897.613 163.176 896.411 166.634 893.992 169.235C891.573 171.836 888.524 173.64 884.858 174.647V176.601C888.539 177.609 891.573 179.428 893.992 182.074C896.411 184.705 897.613 188.193 897.613 192.522V193.815C897.613 196.627 897.132 199.243 896.156 201.663C895.179 204.084 893.737 206.173 891.829 207.947C889.921 209.721 887.577 211.104 884.798 212.112C882.018 213.119 878.833 213.63 875.228 213.63H842.026V199.994V199.979ZM863.449 168.799H873.831C876.865 168.799 879.314 168.167 881.192 166.904C883.07 165.642 884.001 163.492 884.001 160.47V159.823C884.001 156.787 883.07 154.652 881.192 153.389C879.314 152.126 876.865 151.495 873.831 151.495H863.449V168.814V168.799ZM863.449 199.979H873.831C876.865 199.979 879.314 199.333 881.192 198.025C883.07 196.732 884.001 194.567 884.001 191.53V190.884C884.001 187.847 883.07 185.682 881.192 184.389C879.314 183.096 876.865 182.435 873.831 182.435H863.449V199.964V199.979Z" fill="#F3F0E0"/>
<path d="M911.044 137.844H958.849V151.48H925.316V168.799H957.557V182.435H925.316V199.964H960.141V213.6H911.029V137.829L911.044 137.844Z" fill="#F3F0E0"/>
<path d="M1026.02 213.615H1011.75V190.884C1011.75 189.155 1011.3 187.742 1010.39 186.659C1009.49 185.577 1007.99 185.035 1005.9 185.035H989.467V213.615H975.195V137.844H1004.19C1008.08 137.844 1011.51 138.385 1014.47 139.467C1017.43 140.55 1019.89 142.053 1021.87 143.963C1023.86 145.872 1025.37 148.097 1026.41 150.623C1027.46 153.148 1027.97 155.854 1027.97 158.741V161.342C1027.97 164.439 1027.15 167.356 1025.48 170.062C1023.81 172.768 1021.26 174.842 1017.8 176.286V178.24C1020.33 178.526 1022.32 179.503 1023.81 181.157C1025.28 182.81 1026.03 184.915 1026.03 187.441V213.63L1026.02 213.615ZM989.467 171.4H1003.09C1006.55 171.4 1009.19 170.588 1011 168.964C1012.8 167.34 1013.7 165.055 1013.7 162.094V160.801C1013.7 158.275 1012.8 156.095 1011 154.246C1009.19 152.412 1006.56 151.48 1003.09 151.48H989.467V171.4Z" fill="#F3F0E0"/>
<path d="M452.946 240.676H501.412V254.312H467.233V271.631H500.766V285.267H467.233V316.448H452.961V240.676H452.946Z" fill="#F3F0E0"/>
<path d="M517.412 240.676H565.217V254.312H531.684V271.631H563.925V285.267H531.684V302.797H566.509V316.433H517.397V240.661L517.412 240.676Z" fill="#F3F0E0"/>
<path d="M619.737 263.844C619.737 260.807 618.566 258.176 616.222 255.936C613.878 253.696 610.573 252.583 606.321 252.583C602.716 252.583 599.861 253.32 597.773 254.808C595.685 256.282 594.633 258.296 594.633 260.822C594.633 262.115 594.888 263.288 595.384 264.34C595.895 265.392 596.766 266.324 598.028 267.151C599.29 267.978 600.943 268.715 603.001 269.376C605.059 270.023 607.674 270.639 610.844 271.211C618.776 272.654 624.83 275.074 629.022 278.457C633.199 281.855 635.302 286.861 635.302 293.506V294.799C635.302 298.332 634.671 301.534 633.409 304.376C632.147 307.232 630.329 309.667 627.94 311.682C625.567 313.697 622.682 315.26 619.287 316.343C615.891 317.425 612.075 317.966 607.824 317.966C602.851 317.966 598.464 317.26 594.678 315.861C590.892 314.448 587.737 312.509 585.213 310.013C582.689 307.518 580.781 304.601 579.474 301.248C578.182 297.896 577.521 294.228 577.521 290.259V287.011H591.794V289.612C591.794 294.152 593.116 297.791 595.745 300.497C598.374 303.203 602.475 304.556 608.019 304.556C612.346 304.556 615.546 303.624 617.649 301.745C619.737 299.865 620.789 297.625 620.789 295.039C620.789 293.807 620.579 292.634 620.143 291.521C619.707 290.409 618.956 289.387 617.875 288.485C616.793 287.583 615.306 286.771 613.443 286.049C611.565 285.327 609.191 284.711 606.306 284.215C602.49 283.568 598.99 282.712 595.82 281.674C592.65 280.637 589.886 279.239 587.542 277.51C585.198 275.781 583.38 273.616 582.073 271.015C580.781 268.414 580.12 265.242 580.12 261.484V260.837C580.12 257.74 580.751 254.869 582.013 252.238C583.275 249.607 585.048 247.306 587.317 245.367C589.585 243.413 592.319 241.909 595.534 240.827C598.735 239.744 602.325 239.203 606.291 239.203C610.768 239.203 614.735 239.835 618.19 241.097C621.645 242.36 624.56 244.074 626.904 246.239C629.247 248.404 631.02 250.9 632.207 253.711C633.394 256.522 633.995 259.484 633.995 262.581V266.475H619.722V263.874L619.737 263.844Z" fill="#F3F0E0"/>
<path d="M644.617 240.676H699.137V254.312H679.021V316.448H664.748V254.312H644.632V240.676H644.617Z" fill="#F3F0E0"/>
<path d="M227.607 272.488H92.3949V317.59H227.607V272.488Z" fill="#F3F0E0"/>
<path d="M317.598 137.272H272.527V317.68H317.598V137.272Z" fill="#F3F0E0"/>
<path d="M183.287 92.0801H138.217V272.488H183.287V92.0801Z" fill="#F3F0E0"/>
<path d="M138.217 137.182H93.1461V182.284H138.217V137.182Z" fill="#F3F0E0"/>
<path d="M272.527 182.375H227.457V227.477H272.527V182.375Z" fill="#F3F0E0"/>
<path d="M362.669 272.578H317.598V317.68H362.669V272.578Z" fill="#F3F0E0"/>
<path d="M92.6954 409.388L46.5731 363.985V47.7299H362.594L408.716 93.1326V0.478027H0V409.478L92.6954 409.388Z" fill="#F3F0E0"/>
</svg>
